src/work/blix/blixmap/static/images/blixlogo.svg

<svg height="86" viewBox="0 0 115 86" width="115" xmlns="http://www.w3.org/2000/svg"><path d="m95 60.9485933 12.623808-12.623808c1.392188-1.392188 3.659132-1.3978285 5.053862-.0030988 1.391891 1.3918916 1.393342 3.6574205-.003099 5.0538615l-12.623808 12.623808 12.623808 12.623808c1.392188 1.392188 1.397828 3.6591319.003099 5.0538615-1.391892 1.3918916-3.657421 1.3933422-5.053862-.0030988l-12.623808-12.623808-12.623808 12.623808c-1.392188 1.392188-3.6591319 1.3978284-5.0538615.0030988-1.3918916-1.3918916-1.3933422-3.6574205.0030988-5.0538615l12.623808-12.623808-12.623808-12.623808c-1.392188-1.392188-1.3978284-3.6591319-.0030988-5.0538615 1.3918916-1.3918917 3.6574205-1.3933423 5.0538615.0030988zm-87.108215 20.9725439c7.8395967 5.977545 19.0844061 5.3856549 26.2497066-1.7796456 7.8104858-7.8104858 7.8122032-20.4720681 0-28.2842712-7.131773-7.131773-18.3053313-7.7557842-26.1414916-1.862279v-20.9896738c0-2.2127596-1.79535615-4.0065556-4-4.0065556-2.209139 0-4 1.7956808-4 4.0065556v51.9868888c0 2.2127595 1.79535615 4.0065556 4 4.0065556 1.88965421 0 3.4732646-1.3138559 3.891785-3.0775748zm.108215-16.1000599c.09497792-6.5455174 5.430608-11.8223653 11.998712-11.8223653 6.627417 0 12 5.372583 12 12s-5.372583 12-12 12c-6.568104 0-11.90373408-5.2768479-11.998712-11.8223654zm72.8585084-59.96385693c-7.8104858 7.81048583-7.8122032 20.47206813 0 28.28427123l14.1421356 14.1421356 14.142136-14.1421356c7.810485-7.8104858 7.812203-20.4720681 0-28.28427123-7.810486-7.81048584-20.4720685-7.81220315-28.2842716 0zm14.1421356 26.14213563c6.627417 0 12-5.372583 12-12s-5.372583-12.00000001-12-12.00000001-12 5.37258301-12 12.00000001 5.372583 12 12 12zm-30.000644 16c-2.209139 0-4 1.7845869-4 3.9948028v29.0103944c0 2.2062687 1.7953562 3.9948028 4 3.9948028 2.209139 0 4-1.7845869 4-3.9948028v-29.0103944c0-2.2062687-1.7953562-3.9948028-4-3.9948028zm-16-23c-2.209139 0-4 1.7956808-4 4.0065556v51.9868888c0 2.2127595 1.7953562 4.0065556 4 4.0065556 2.209139 0 4-1.7956808 4-4.0065556v-51.9868888c0-2.2127596-1.7953562-4.0065556-4-4.0065556zm16 16c2.7614237 0 5-2.2385763 5-5 0-2.7614238-2.2385763-5-5-5s-5 2.2385762-5 5c0 2.7614237 2.2385763 5 5 5z" fill="#f50" fill-rule="evenodd"/></svg>

<?xml version="1.0" encoding="UTF-8" standalone="no"?>
<svg width="115px" height="86px" viewBox="0 0 115 86" version="1.1" xmlns="http://www.w3.org/2000/svg" xmlns:xlink="http://www.w3.org/1999/xlink" xmlns:sketch="http://www.bohemiancoding.com/sketch/ns">
    <!-- Generator: Sketch 3.1.1 (8761) - http://www.bohemiancoding.com/sketch -->
    <title>blixlogo</title>
    <desc>Created with Sketch.</desc>
    <defs></defs>
    <g id="Map-View" stroke="none" stroke-width="1" fill="none" fill-rule="evenodd" sketch:type="MSPage">
        <path d="M95,60.9485933 L107.623808,48.3247853 C109.015996,46.9325973 111.28294,46.9269568 112.67767,48.3216865 C114.069561,49.7135781 114.071012,51.979107 112.674571,53.375548 L100.050763,65.999356 L112.674571,78.623164 C114.066759,80.015352 114.072399,82.2822959 112.67767,83.6770255 C111.285778,85.0689171 109.020249,85.0703677 107.623808,83.6739267 L95,71.0501187 L82.376192,83.6739267 C80.984004,85.0661147 78.7170601,85.0717551 77.3223305,83.6770255 C75.9304389,82.2851339 75.9289883,80.019605 77.3254293,78.623164 L89.9492373,65.999356 L77.3254293,53.375548 C75.9332413,51.98336 75.9276009,49.7164161 77.3223305,48.3216865 C78.7142221,46.9297948 80.979751,46.9283442 82.376192,48.3247853 L95,60.9485933 Z M7.891785,81.9211372 C15.7313817,87.8986822 26.9761911,87.3067921 34.1414916,80.1414916 C41.9519774,72.3310058 41.9536948,59.6694235 34.1414916,51.8572204 C27.0097186,44.7254474 15.8361603,44.1014362 8,49.9949414 L8,29.0052676 C8,26.792508 6.20464385,24.998712 4,24.998712 C1.790861,24.998712 0,26.7943928 0,29.0052676 L0,80.9921564 C0,83.2049159 1.79535615,84.998712 4,84.998712 C5.88965421,84.998712 7.4732646,83.6848561 7.891785,81.9211372 L7.891785,81.9211372 Z M8,65.8210773 C8.09497792,59.2755599 13.430608,53.998712 19.998712,53.998712 C26.626129,53.998712 31.998712,59.371295 31.998712,65.998712 C31.998712,72.626129 26.626129,77.998712 19.998712,77.998712 C13.430608,77.998712 8.09497792,72.7218641 8,66.1763466 L8,65.8210773 L8,65.8210773 Z M80.8585084,5.85722037 C73.0480226,13.6677062 73.0463052,26.3292885 80.8585084,34.1414916 L95.000644,48.2836272 L109.14278,34.1414916 C116.953265,26.3310058 116.954983,13.6694235 109.14278,5.85722037 C101.332294,-1.95326547 88.6707115,-1.95498278 80.8585084,5.85722037 Z M95.000644,31.999356 C101.628061,31.999356 107.000644,26.626773 107.000644,19.999356 C107.000644,13.371939 101.628061,7.99935599 95.000644,7.99935599 C88.373227,7.99935599 83.000644,13.371939 83.000644,19.999356 C83.000644,26.626773 88.373227,31.999356 95.000644,31.999356 Z M65,47.999356 C62.790861,47.999356 61,49.7839429 61,51.9941588 L61,81.0045532 C61,83.2108219 62.7953562,84.999356 65,84.999356 C67.209139,84.999356 69,83.2147691 69,81.0045532 L69,51.9941588 C69,49.7878901 67.2046438,47.999356 65,47.999356 Z M49,24.999356 C46.790861,24.999356 45,26.7950368 45,29.0059116 L45,80.9928004 C45,83.2055599 46.7953562,84.999356 49,84.999356 C51.209139,84.999356 53,83.2036752 53,80.9928004 L53,29.0059116 C53,26.793152 51.2046438,24.999356 49,24.999356 Z M65,40.999356 C67.7614237,40.999356 70,38.7607797 70,35.999356 C70,33.2379322 67.7614237,30.999356 65,30.999356 C62.2385763,30.999356 60,33.2379322 60,35.999356 C60,38.7607797 62.2385763,40.999356 65,40.999356 Z" id="blixlogo" fill="#FF5500" sketch:type="MSShapeGroup"></path>
    </g>
</svg>
